X:5933
T:Gan Ainm
R:Reel
S:
H:
N:
D:
Z:Adrian Scahill
M:4/4
L:1/8
K:G
cA (3BAG AedB|cAA2 BGBd|cA (3BAG ABcd|1 efge dBGB:|2 efge dega||\
b2gb a2ga|bage dega|1 b2gb a2gd|efge dega:|2 bgaf gfed|eage dBGB||
